public/assets/icon_human.svg

<svg fill="none" height="13" viewBox="0 0 15 13" width="15" xmlns="http://www.w3.org/2000/svg"><path d="m12.0968 9.53053c.1399-.13985.306-.20978.4986-.20978.1925 0 .3584.06993.4978.20978l1.1013 1.11877c.1399.1399.2098.303.2098.4895 0 .1864-.0699.3496-.2098.4894-.1398.1399-.303.2098-.4894.2098-.1865 0-.3497-.0699-.4895-.2098l-1.1188-1.1013c-.1398-.1398-.2098-.3058-.2098-.4978 0-.19208.07-.35826.2098-.49857zm.6993-8.39086c.1398.13985.2097.30604.2097.49856s-.0699.35847-.2097.49786l-1.1013 1.1013c-.1399.13984-.3058.20977-.4979.20977s-.3582-.06993-.4986-.20977c-.1403-.13985-.2102-.3058-.2097-.49786.0004-.19206.0704-.35824.2097-.49856l1.1188-1.1013c.1399-.139845.303-.209769.4895-.209769.1864 0 .3496.069924.4895.209769zm-11.18785 0c.13985-.139845.30603-.209769.49856-.209769.19252 0 .35847.069924.49785.209769l1.1013 1.11878c.13985.13985.20977.30301.20977.48947s-.06992.34962-.20977.48947c-.13985.13984-.3058.20977-.49786.20977-.19205 0-.35824-.06993-.49855-.20977l-1.1013-1.1013c-.13985-.13985-.20977-.3058-.20977-.49786s.06992-.35824.20977-.49856zm.69924 8.39086c.13984.13984.20977.30603.20977.49857 0 .1925-.06993.3585-.20977.4978l-1.1013 1.1013c-.13985.1399-.305803.2098-.49786.2098s-.358243-.0699-.498556-.2098c-.1403141-.1398-.21023784-.3058-.20977168-.4978.00046615-.1921.07038988-.3583.20977168-.4986l1.118776-1.10127c.13985-.13985.30301-.20978.48947-.20978s.34962.06993.48947.20978zm2.69206 1.27607 2.2026-1.32852 2.2026 1.34602-.57687-2.51724 1.94042-1.67817-2.55225-.22725-1.0139-2.37741-1.01389 2.35993-2.55222.22725 1.94038 1.69565zm2.2026.3147-2.90184 1.7481c-.12819.0816-.26221.1165-.40206.1049-.13985-.0117-.26221-.0583-.3671-.1399-.10488-.0816-.18646-.1834-.24473-.3055-.05827-.1222-.06992-.2592-.03496-.4112l.76916-3.30389-2.5697-2.22008c-.11654-.10489-.18926-.22446-.21816-.35871-.0289-.13426-.02028-.26525.02587-.39297.04615-.12773.11607-.23262.20977-.31466.0937-.08205.22189-.13449.38458-.15733l3.3913-.29718 1.31108-3.1116c.05827-.13985.1487-.24474.2713-.31466s.24776-.10489.37549-.10489.25289.03497.37549.10489.21304.17481.27131.31466l1.31107 3.1116 3.39128.29718c.1632.02331.2914.07575.3846.15733s.1632.18646.2098.31466c.0466.12819.0554.25941.0265.39367-.0289.13425-.1018.25359-.2188.35801l-2.5697 2.22008.7691 3.30389c.035.1515.0234.2886-.0349.4112s-.1399.2244-.2448.3055c-.1048.0811-.2272.1277-.3671.1399-.1398.0121-.2738-.0229-.402-.1049z" fill="#fff"/></svg>

<svg width="15" height="13" viewBox="0 0 15 13" fill="none" xmlns="http://www.w3.org/2000/svg">
<path d="M12.0968 9.53053C12.2367 9.39068 12.4028 9.32075 12.5954 9.32075C12.7879 9.32075 12.9538 9.39068 13.0932 9.53053L14.1945 10.6493C14.3344 10.7892 14.4043 10.9523 14.4043 11.1388C14.4043 11.3252 14.3344 11.4884 14.1945 11.6282C14.0547 11.7681 13.8915 11.838 13.7051 11.838C13.5186 11.838 13.3554 11.7681 13.2156 11.6282L12.0968 10.5269C11.957 10.3871 11.887 10.2211 11.887 10.0291C11.887 9.83702 11.957 9.67084 12.0968 9.53053ZM12.7961 1.13967C12.9359 1.27952 13.0058 1.44571 13.0058 1.63823C13.0058 1.83075 12.9359 1.9967 12.7961 2.13609L11.6948 3.23739C11.5549 3.37723 11.389 3.44716 11.1969 3.44716C11.0048 3.44716 10.8387 3.37723 10.6983 3.23739C10.558 3.09754 10.4881 2.93159 10.4886 2.73953C10.489 2.54747 10.559 2.38129 10.6983 2.24097L11.8171 1.13967C11.957 0.999825 12.1201 0.929901 12.3066 0.929901C12.493 0.929901 12.6562 0.999825 12.7961 1.13967ZM1.60825 1.13967C1.7481 0.999825 1.91428 0.929901 2.10681 0.929901C2.29933 0.929901 2.46528 0.999825 2.60466 1.13967L3.70596 2.25845C3.84581 2.3983 3.91573 2.56146 3.91573 2.74792C3.91573 2.93438 3.84581 3.09754 3.70596 3.23739C3.56611 3.37723 3.40016 3.44716 3.2081 3.44716C3.01605 3.44716 2.84986 3.37723 2.70955 3.23739L1.60825 2.13609C1.4684 1.99624 1.39848 1.83029 1.39848 1.63823C1.39848 1.44617 1.4684 1.27999 1.60825 1.13967ZM2.30749 9.53053C2.44733 9.67037 2.51726 9.83656 2.51726 10.0291C2.51726 10.2216 2.44733 10.3876 2.30749 10.5269L1.20619 11.6282C1.06634 11.7681 0.900387 11.838 0.70833 11.838C0.516273 11.838 0.350087 11.7681 0.209774 11.6282C0.0694599 11.4884 -0.000463843 11.3224 2.31536e-06 11.1304C0.000468474 10.9383 0.0703922 10.7721 0.209774 10.6318L1.32855 9.53053C1.4684 9.39068 1.63156 9.32075 1.81802 9.32075C2.00448 9.32075 2.16764 9.39068 2.30749 9.53053ZM4.99955 10.8066L7.20215 9.47808L9.40475 10.8241L8.82788 8.30686L10.7683 6.62869L8.21605 6.40144L7.20215 4.02403L6.18826 6.38396L3.63604 6.61121L5.57642 8.30686L4.99955 10.8066ZM7.20215 11.1213L4.30031 12.8694C4.17212 12.951 4.0381 12.9859 3.89825 12.9743C3.7584 12.9626 3.63604 12.916 3.53115 12.8344C3.42627 12.7528 3.34469 12.651 3.28642 12.5289C3.22815 12.4067 3.2165 12.2697 3.25146 12.1177L4.02062 8.81381L1.45092 6.59373C1.33438 6.48884 1.26166 6.36927 1.23276 6.23502C1.20386 6.10076 1.21248 5.96977 1.25863 5.84205C1.30478 5.71432 1.3747 5.60943 1.4684 5.52739C1.5621 5.44534 1.69029 5.3929 1.85298 5.37006L5.24428 5.07288L6.55536 1.96128C6.61363 1.82143 6.70406 1.71654 6.82666 1.64662C6.94926 1.5767 7.07442 1.54173 7.20215 1.54173C7.32988 1.54173 7.45504 1.5767 7.57764 1.64662C7.70024 1.71654 7.79068 1.82143 7.84895 1.96128L9.16002 5.07288L12.5513 5.37006C12.7145 5.39337 12.8427 5.44581 12.9359 5.52739C13.0291 5.60897 13.0991 5.71385 13.1457 5.84205C13.1923 5.97024 13.2011 6.10146 13.1722 6.23572C13.1433 6.36997 13.0704 6.48931 12.9534 6.59373L10.3837 8.81381L11.1528 12.1177C11.1878 12.2692 11.1762 12.4063 11.1179 12.5289C11.0596 12.6515 10.978 12.7533 10.8731 12.8344C10.7683 12.9155 10.6459 12.9621 10.506 12.9743C10.3662 12.9864 10.2322 12.9514 10.104 12.8694L7.20215 11.1213Z" fill="white"/>
</svg>
